img/logo.svg

<svg width="27" height="32" viewBox="0 0 27 32" fill="none" xmlns="http://www.w3.org/2000/svg">
<path d="M26.1407 17.0396C26.1325 16.5466 26.098 16.0545 26.0373 15.5653C25.8877 14.141 25.5034 12.7516 24.9003 11.4542L24.6654 11.0006V10.925H24.5339H24.1204C22.9719 11.0304 21.8396 11.2714 20.7472 11.6432L20.4089 11.7661V11.4826C20.1938 10.087 19.8218 8.72049 19.3001 7.40933C19.0029 6.67967 18.6543 5.97222 18.2571 5.29238C17.4333 3.95127 16.4417 2.72209 15.3067 1.63497C14.6935 1.09428 14.0331 0.610338 13.3334 0.189014L13.1737 0.0850561L13.0985 0.0377998L13.0234 0.0850561L12.873 0.189014C11.2395 1.32273 9.83621 2.75977 8.73862 4.42291C7.88719 5.66667 7.18094 7.00488 6.63383 8.4111C6.23763 9.41775 5.96011 10.4676 5.80695 11.5393C5.80695 11.6432 5.80695 11.7377 5.80695 11.8417C5.80695 11.9457 5.46868 11.6999 4.86732 11.5298L4.6512 11.4731C3.64276 11.2082 2.61551 11.0217 1.57859 10.9155L1.22153 11.7944C1.11817 12.0307 1.01481 12.267 0.92085 12.5127C0.247421 14.3219 -0.0282665 16.2564 0.112763 18.1831C0.190131 19.3542 0.404598 20.512 0.751715 21.6326C1.6746 24.6341 3.46361 27.292 5.89152 29.2688C6.68568 29.9441 7.56377 30.5128 8.50371 30.9604C9.97574 31.6493 11.5783 32.0104 13.2019 32.0189H13.4274C15.1821 31.9024 16.8923 31.4128 18.445 30.5824C18.8021 30.3839 19.1592 30.1477 19.1686 30.1477C19.65 29.8337 20.1113 29.4897 20.5498 29.1175C21.8602 28.0159 22.9836 26.7072 23.8761 25.2428C24.7855 23.7841 25.4579 22.1889 25.8682 20.5174C26.098 19.3734 26.1895 18.2057 26.1407 17.0396ZM13.1549 25.7058C13.1455 27.1081 12.9107 28.4995 12.4596 29.8263C9.79146 29.3464 7.34547 28.022 5.47808 26.0461C4.28134 24.6876 3.37039 23.0995 2.80012 21.3774C2.28346 19.8943 2.05071 18.3263 2.11418 16.7561C2.18469 15.5761 2.41872 14.4119 2.80951 13.2971V13.2404H2.93167C3.76242 13.3895 4.57727 13.6173 5.36532 13.9208L5.60023 14.0154C6.61568 14.4958 7.56353 15.1091 8.41914 15.8393C9.76598 16.9557 10.8614 18.3474 11.6327 19.922C11.8112 20.3001 11.9616 20.697 12.0555 20.9333C12.4698 21.8577 12.7848 22.824 12.9952 23.8157C13.1078 24.4392 13.1613 25.0721 13.1549 25.7058ZM13.0891 18.1453C12.6088 17.3329 12.0586 16.5645 11.4448 15.8488C11.0851 15.4186 10.6991 15.0114 10.289 14.6297C9.89116 14.2396 9.47072 13.8735 9.0299 13.5334C8.63525 13.2498 8.22181 12.9852 7.80837 12.7395C7.87958 12.0777 7.99256 11.4211 8.14664 10.7738C8.5495 9.0475 9.24566 7.40415 10.2044 5.91612C10.7851 5.04062 11.4491 4.22402 12.1871 3.47785C12.4972 3.16597 12.826 2.8541 13.1267 2.53278C14.6266 3.72156 15.8675 5.20772 16.7725 6.899C17.3127 7.94364 17.732 9.04712 18.0222 10.1878C18.236 11.0126 18.3837 11.8532 18.4638 12.7017C17.2924 13.3811 16.2204 14.2208 15.2785 15.1967C14.4332 16.0872 13.6981 17.0773 13.0891 18.1453ZM22.1848 23.8819C20.508 26.6933 17.814 28.7425 14.6677 29.5995C14.9053 28.7817 15.0657 27.9432 15.1469 27.0951C15.2261 26.2306 15.2261 25.3606 15.1469 24.4962C15.0216 23.1106 14.7054 21.7492 14.2073 20.4513C14.6326 19.5043 15.1655 18.6099 15.7953 17.7862C16.4117 16.9741 17.1213 16.2381 17.9095 15.5936C18.7303 14.9353 19.6339 14.3888 20.5968 13.9681C21.478 13.5869 22.4028 13.3171 23.3499 13.1648C23.5139 13.6836 23.6519 14.2103 23.7634 14.7431C23.9607 15.9622 24.0547 16.9073 24.0641 17.0018C24.1137 19.4298 23.4608 21.8201 22.1848 23.8819Z" fill="#F49879"/>
</svg>

<svg width="27" height="32" fill="none" xmlns="http://www.w3.org/2000/svg">
<path d="M26.14 17.04a13.842 13.842 0 00-.103-1.475 12.967 12.967 0 00-1.137-4.11L24.665 11v-.076H24.12c-1.148.105-2.28.346-3.373.718l-.338.123v-.283A18.74 18.74 0 0019.3 7.409a16.638 16.638 0 00-1.043-2.117 18.4 18.4 0 00-2.95-3.657A13.56 13.56 0 0013.333.189l-.16-.104-.075-.047-.075.047-.15.104a15.637 15.637 0 00-4.134 4.234A19.715 19.715 0 006.634 8.41a13.918 13.918 0 00-.827 3.128v.303c0 .104-.338-.142-.94-.312l-.216-.057a20.191 20.191 0 00-3.072-.558l-.357.88c-.104.236-.207.472-.301.718a13.443 13.443 0 00-.808 5.67 15 15 0 00.639 3.45 15.853 15.853 0 005.14 7.636 11.991 11.991 0 002.612 1.691 11.222 11.222 0 004.698 1.059h.225a12.377 12.377 0 005.018-1.437c.357-.198.714-.434.724-.434.481-.314.942-.658 1.38-1.03a15.811 15.811 0 003.327-3.875 16.258 16.258 0 001.992-4.726c.23-1.144.322-2.311.273-3.477zm-12.985 8.666a13.074 13.074 0 01-.695 4.12 12.7 12.7 0 01-6.982-3.78A13.467 13.467 0 012.8 21.377a12.512 12.512 0 01-.686-4.62c.07-1.18.305-2.345.696-3.46v-.057h.122c.83.15 1.645.377 2.433.68l.235.095a12.726 12.726 0 012.82 1.824 12.37 12.37 0 013.213 4.083c.178.378.329.775.423 1.011.414.925.729 1.891.94 2.883.112.623.165 1.256.159 1.89zm-.066-7.56c-.48-.813-1.03-1.582-1.644-2.297-.36-.43-.746-.838-1.156-1.22-.398-.39-.818-.755-1.26-1.096a16.845 16.845 0 00-1.22-.793c.07-.662.184-1.319.338-1.966a15.453 15.453 0 012.057-4.858 16.205 16.205 0 011.983-2.438c.31-.312.639-.624.94-.945a13.996 13.996 0 013.646 4.366c.54 1.045.959 2.148 1.25 3.289.213.825.36 1.665.44 2.514a14.625 14.625 0 00-3.185 2.495c-.845.89-1.58 1.88-2.189 2.948zm9.096 5.736a12.618 12.618 0 01-7.517 5.717c.237-.817.398-1.656.479-2.504.08-.864.08-1.734 0-2.599a15.08 15.08 0 00-.94-4.045 13.48 13.48 0 011.588-2.665 12.93 12.93 0 012.115-2.192 11.555 11.555 0 015.44-2.429c.164.519.302 1.045.413 1.578.198 1.22.292 2.164.301 2.259a12.587 12.587 0 01-1.88 6.88z" fill="#FFFFFF"/>
</svg>
